!!!SOCIAL_FUNCTION: roaming chief's songs
!!!PDT:	1929
!!!LING_GROUP: Caddoan
!!!LANG: Non-Tone
!!!REG: Oklahoma
!!!COM: Anon.
!!!OTL: My Trust is in Mother Corn
!!!ODT: <1920//
!!!MPN: Laduda desadu [He does everything as a chief, John Luwak]
!!!MLC: Pawnee, Oklahoma, United States of America
!! Song was recorded either 1919 or 1920.
!!!AGN: monody
!!!AMT: simple duple
!!!RWG: Transcribed pitches, durations, and meters are only approximate.
!! Drum not recorded
**kern
*ICvox
*Imale
*clefF4
*k[b-e-a-]
*M2/4
*MM53
*[A,A]
*>A
16g
=1
8.cc
16cc
16cc
16g
16a-
16g
=2
8f
[8f
8f]
8e-;
=3
[4f
8f]
16a
16g
=4
8f
[8f
8f]
8e-;
=5
8.f
16f
16f
16e-
16f
16e-
=6
8c
[8c
8c]
8G;
=7
8c
8c
4c
=8
16G
8.G
8G
8G
=9
4..G
==:|!
*-
!!!HAO:    Roaming Chief sang the following song at the Pipe dance and it
!!!HAO: was sung at the Victory dance attended by the writer.  It was
!!!HAO: said that "Mother Corn was carried on the warpath to give victory
!!!HAO: and was also used in the Pipe dance."  The words are freely translated,
!!!HAO: "My whole trust is in Mother Corn."
!!!HTX: My whole trust is in Mother Corn.
!!!CNT: Pawnee
!!!TXO: Pawnee
!!!OCY: United States
!!!OCL: Frances Densmore
!!!YOR: Frances Densmore, "Pawnee Music"
!!!YOR: Bulletin 93, page 93, No. 67
!!!PPR: Smithsonian Institution, Bureau of American Ethnology
!!!PPR: Government Printing Office
!!!PDT: 1926
!!!PPP: Washington, DC, United States of America
!!!YEC: Electronic Copyright 2000 David Huron
!!!YER: September 2000
!!!YEN: United States of America
!!!ENC: David Huron
!!!RDT: September 10, 2000
!!!EEV: Release 1.0
!!!AIN: vox
